icon-svg/valetudo.svg

<svg xmlns="http://www.w3.org/2000/svg" fill="#44739e" viewBox="0 0 24 24"><path d="M12.023 11.254a2.039 2.039 0 1 0-2.039-2.039 2.041 2.041 0 0 0 2.039 2.039m0-2.574a.535.535 0 1 1-.535.535.536.536 0 0 1 .535-.535M9.865 13.3l.034.022 1.637.968a.75.75 0 0 0 .748.01l1.868-1.038a.8.8 0 0 0 .1-.063 4.628 4.628 0 1 0-4.383.1zm2.1-7.246A3.123 3.123 0 1 1 8.84 9.177a3.127 3.127 0 0 1 3.122-3.123Zm8.968-2.434a.7527.7527 0 1 0-1.343.68 8.467 8.467 0 0 1-4.557 11.724l-.045.016-.019.008-.095.035a.9.9 0 0 0-.107.048 5.1 5.1 0 0 0-2.467 1.755v.014l-.334.589c-.136-.234-.277-.464-.407-.649a8.22 8.22 0 0 0-2.269-1.691.73.73 0 0 0-.136-.057l-.028-.011A8.468 8.468 0 0 1 4.41 4.3a.7527.7527 0 1 0-1.343-.68A9.972 9.972 0 0 0 8.618 17.5h.006a7.14 7.14 0 0 1 1.7 1.2 17.5 17.5 0 0 1 .948 1.677.752.752 0 0 0 .653.416h.021a.752.752 0 0 0 .654-.381l.992-1.749a4.57 4.57 0 0 1 1.931-1.219 9.97 9.97 0 0 0 5.41-13.824M13.6 18.653l.007-.012z"/></svg>

<?xml version="1.0" encoding="UTF-8"?>
<svg width="24px" fill="#44739e" height="24px" viewBox="0 0 24 24" version="1.1" xmlns="http://www.w3.org/2000/svg" xmlns:xlink="http://www.w3.org/1999/xlink">
            <path d="m 12.023,11.254 a 2.039,2.039 0 1 0 -2.039,-2.039 2.041,2.041 0 0 0 2.039,2.039 z m 0,-2.574 A 0.535,0.535 0 1 1 11.488,9.215 0.536,0.536 0 0 1 12.023,8.68 Z m -2.158,4.62 0.034,0.022 1.637,0.968 a 0.75,0.75 0 0 0 0.748,0.01 l 1.868,-1.038 a 0.794,0.794 0 0 0 0.1,-0.063 4.628,4.628 0 1 0 -4.383,0.1 z m 2.1,-7.246 A 3.123,3.123 0 1 1 8.84,9.177 3.127,3.127 0 0 1 11.962,6.054 Z M 20.933,3.62 A 0.75267008,0.75267008 0 1 0 19.59,4.3 8.467,8.467 0 0 1 15.033,16.024 l -0.045,0.016 -0.019,0.008 -0.095,0.035 A 0.868,0.868 0 0 0 14.767,16.131 5.1,5.1 0 0 0 12.3,17.886 V 17.9 l -0.334,0.589 C 11.83,18.255 11.689,18.025 11.559,17.84 A 8.218,8.218 0 0 0 9.29,16.149 0.727,0.727 0 0 0 9.154,16.092 L 9.126,16.081 A 8.468,8.468 0 0 1 4.41,4.3 0.75267008,0.75267008 0 1 0 3.067,3.62 9.972,9.972 0 0 0 8.618,17.5 h 0.006 a 7.141,7.141 0 0 1 1.7,1.2 17.5,17.5 0 0 1 0.948,1.677 0.752,0.752 0 0 0 0.653,0.416 h 0.021 A 0.752,0.752 0 0 0 12.6,20.412 l 0.992,-1.749 A 4.572,4.572 0 0 1 15.523,17.444 9.97,9.97 0 0 0 20.933,3.62 Z M 13.6,18.653 v 0 l 0.007,-0.012 v 0 z"/>

</svg>
